X: 131
T: The Birks of Abergeldie
R: reel
M: C
L: 1/8
Z: 2012 John Chambers <jc:trillian.mit.edu>
B: J. Anderson "Budget of Strathspeys, Reels and Country Dances" (Early 1800s) p.13 #1
F: http://imslp.org/wiki/Anderson%27s_Budget_of_Strathspeys,_Reels_and_Country_Dances_(Various)
K: G
|:\
GABd g2(gd) | g2(gd) agab | GABd gaba | gedB A2e2 :|
GABg dgBg | dgBd (e/d/c/B/) (AB) | GABd gaba | gedB A2e2 |
GABg dgBg | dgBd (e/d/c/B/) (AB) | GABd gaba | gedB A2e2 |]

%%sep 2 1 500
%%sep 1 1 500

